**kern
*staff1
!!pagebreak:original
*I"P1
=1-
*clefG2
*k[b-e-a-d-g-]
*M3/4
fq/
2.aa-\
=2
4a-/
8ff\L
8ee-\J
4dd-\
=3
fq/
2.aa-\
=4
4a-/
8ff\L
8ee-\J
4dd-\
=5
4ee-\
8e-/L
8a-/J
4g-/
=6
4ee-\
8e-/L
8a-/J
4g-/
=7
4ee-\
8e-/L
8a-/J
4g-/
=8
4ee-\
8e-/L
8a-/J
4g-/
*-
